assets/icons/text-editor-filled.svg

<?xml version="1.0" encoding="UTF-8" standalone="no"?>
<svg viewBox="0 0 24 24" height="24" id="svg7384" version="1.1" width="24" sodipodi:docname="text-editor-filled.svg" inkscape:version="1.1.2 (08b2f3d93c, 2022-04-05)"
   xmlns:inkscape="http://www.inkscape.org/namespaces/inkscape"
   xmlns:sodipodi="http://sodipodi.sourceforge.net/DTD/sodipodi-0.dtd"
   xmlns="http://www.w3.org/2000/svg"
   xmlns:svg="http://www.w3.org/2000/svg"
   xmlns:rdf="http://www.w3.org/1999/02/22-rdf-syntax-ns#"
   xmlns:cc="http://creativecommons.org/ns#"
   xmlns:dc="http://purl.org/dc/elements/1.1/">
   <sodipodi:namedview id="namedview22" pagecolor="#ffffff" bordercolor="#666666" borderopacity="1.0" inkscape:pageshadow="2" inkscape:pageopacity="0.0" inkscape:pagecheckerboard="0" showgrid="true" inkscape:zoom="34.073709" inkscape:cx="12.663723" inkscape:cy="13.206663" inkscape:window-width="1920" inkscape:window-height="1043" inkscape:window-x="0" inkscape:window-y="0" inkscape:window-maximized="1" inkscape:current-layer="svg7384">
      <inkscape:grid type="xygrid" id="grid839" />
   </sodipodi:namedview>
   <metadata id="metadata20854">
      <rdf:RDF>
         <cc:Work rdf:about="">
            <dc:format>image/svg+xml</dc:format>
            <dc:type rdf:resource="http://purl.org/dc/dcmitype/StillImage" />
         </cc:Work>
      </rdf:RDF>
   </metadata>
   <defs id="defs7386">
      <linearGradient id="linearGradient5606" inkscape:swatch="solid">
         <stop id="stop5608" offset="0" style="stop-color:#000000;stop-opacity:1;" />
      </linearGradient>
      <linearGradient id="linearGradient4526" inkscape:swatch="solid">
         <stop id="stop4528" offset="0" style="stop-color:#ffffff;stop-opacity:1;" />
      </linearGradient>
      <linearGradient id="linearGradient3600-4" inkscape:swatch="gradient">
         <stop id="stop3602-7" offset="0" style="stop-color:#f4f4f4;stop-opacity:1" />
         <stop id="stop3604-6" offset="1" style="stop-color:#dbdbdb;stop-opacity:1" />
      </linearGradient>
   </defs>
   <path id="path866" style="color:#000000;fill:#808080;fill-opacity:1;-inkscape-stroke:none" d="m 5.7871094,2 c -0.6769458,0.00559 -1.250602,0.048153 -1.7597656,0.3027344 -0.3394423,0.1697212 -0.6300054,0.4624336 -0.796875,0.8378906 -0.1668701,0.375457 -0.2304688,0.8177089 -0.2304688,1.359375 v 15 c 0,0.541666 0.063599,0.983918 0.2304688,1.359375 0.1668696,0.375457 0.4574326,0.668169 0.796875,0.837891 0.6788847,0.339442 1.4726572,0.302734 2.4726562,0.302734 h 10 c 0.999999,0 1.793771,0.03671 2.472656,-0.302734 0.339443,-0.169722 0.630005,-0.462434 0.796875,-0.837891 0.16687,-0.375457 0.230469,-0.817709 0.230469,-1.359375 v -15 c 0,-0.5416661 -0.0636,-0.983918 -0.230469,-1.359375 -0.16687,-0.375457 -0.457432,-0.6681694 -0.796875,-0.8378906 -0.678885,-0.3394424 -1.472657,-0.3027344 -2.472656,-0.3027344 h -10 c -0.2499997,0 -0.487242,-0.00186 -0.7128906,0 z m 0.2128906,4 h 11 v 1 h -11 z m 0,2 h 7 v 1 h -7 z m 10.125,1 3.125,3.125 -6.875,6.875 -4.375,1.25 1.25,-4.375 z m -10.125,1 h 4 v 1 h -4 z m 3.875,6.5 -0.625,2.5 2.5,-0.625 z" sodipodi:nodetypes="csssssssssssssssscccccccccccccccccccccccccc" />
</svg>

<svg height="24" width="24" xmlns="http://www.w3.org/2000/svg"><path style="color:#000;fill:gray;fill-opacity:1;-inkscape-stroke:none" d="M5.787 2c-.677.006-1.25.048-1.76.303-.34.17-.63.462-.797.838C3.064 3.516 3 3.958 3 4.5v15c0 .542.064.984.23 1.36.167.375.458.668.797.837.68.34 1.473.303 2.473.303h10c1 0 1.794.037 2.473-.303.34-.17.63-.462.797-.838.166-.375.23-.817.23-1.359v-15c0-.542-.064-.984-.23-1.36a1.72 1.72 0 0 0-.797-.837C18.293 1.963 17.5 2 16.5 2h-10c-.25 0-.487-.002-.713 0zM6 6h11v1H6zm0 2h7v1H6zm10.125 1 3.125 3.125L12.375 19 8 20.25l1.25-4.375zM6 10h4v1H6zm3.875 6.5L9.25 19l2.5-.625z"/></svg>
